X:1
T:Title
%%score { 1 | ( 2 3 ) }
L:1/8
M:4/4
K:Bb
V:1 treble nm="Grand Piano"
V:2 bass 
V:3 bass 
V:1
 z4 z2[Q:1/4=86] [DF]2 | [DF]>[Fd] [Fc]>[FB] F2 B2 | A>G A>B c2 F2 | F>e d>c G2 A2 | %4
 [Dc]>[DB] [_DA]>[DG] [=DF]2 [DF]2 | [DF]>[Fd] [Fc]>[FB] F2 B2 | A>G A>B c2 F2 | %7
 F>G A>B [Gc]2 [Ge][Ge] |[M:3/4] .[Fd]2 .[EAc]2 [DFB]2 |[M:1/4] [DF]2 | %10
[M:4/4] [DF]>[DG] [DA]>[DB] [Dc]2 [DB][DG] | A4 F2 F2 | F>G A>B c2 =Bc |[M:3/4] [Fd]4 B2 | %14
[M:1/4] [DF]2 |[M:4/4] [DF]>[DG] [DA]>[DB] [Dc]2 [DB][DG] | A4 F2 F2 | F>G A>B c2 d2 | %18
[M:3/4] [DB]6 |] %19
V:2
 z4 z2 [B,,B,]2 | [B,,B,]>[B,,B,] [C,A,]>[D,B,] [F,B,D]2 [F,DF]2 | %2
 [F,CF]>[F,B,F] [F,CF]>[F,DF] [F,EF]2 [F,A,]2 | [F,A,]>[F,CF] [F,B,F]>[F,A,F] [F,CE]2 [F,A,E]2 | %4
 [B,,B,]>[B,,F,] [B,,=E,]>[B,,E,] [B,,F,]2 [B,,B,]2 | %5
 [B,,B,]>[B,,B,] [C,A,]>[D,B,] [F,B,D]2 [F,DF]2 | [F,CF]>[F,B,F] [F,CF]>[F,DF] [F,EF]2 [F,A,]2 | %7
 [F,A,E]>[F,B,E] [F,CE]>[G,B,D] [E,B,]2 [C,C][E,C] |[M:3/4] z[K:treble] B z F[K:bass] B,,2 | %9
[M:1/4] [B,,B,]2 |[M:4/4] [B,,B,]>[B,,B,] [B,,B,]>[B,,B,] [B,,B,]2 [B,,B,][B,,B,] | C4 z4 | %12
 [F,A,E]>[F,B,E] [F,CE]>[F,B,D] [F,A,E]2 [F,_A,D][F,=A,E] |[M:3/4] B,4 z2 |[M:1/4] [B,,B,]2 | %15
[M:4/4] [B,,B,]>[B,,B,] [B,,B,]>[B,,B,] [B,,B,]2 [B,,B,][B,,B,] | C4 z4 | %17
 [F,A,E]>[F,B,E] [F,CE]>[F,B,D] [F,A,E]2 [F,F]2 |[M:3/4] [B,,F,]6 |] %19
V:3
 x8 | x8 | x8 | x8 | x8 | x8 | x8 | x8 |[M:3/4] [F,B,]2[K:treble] F,2[K:bass] z2 |[M:1/4] x2 | %10
[M:4/4] x8 | [F,E]4- [F,A,E]2 [F,A,E]2 | x8 |[M:3/4] B,,4- [B,,F,D]2 |[M:1/4] x2 |[M:4/4] x8 | %16
 [F,E]4- [F,A,E]2 [F,A,E]2 | x8 |[M:3/4] x6 |] %19

